X: 145127
M: C
L: 1/8
K: G
|:\
(3GGG G2 (3GGG G2 | BGBd gdBG |\
(3DDD D2 (3DDD D2 | FDFA cAFD |\
(3GGG G2 (3GGG G2 | BGBd g2g2 |\
fbag fed^c | d2d2 d2z2 :|
|:\
(3ddd d2 (3ddd d2 | efgf edcB |\
cded cBAG | FGAG FDEF |\
(3GGG G2 EGDG | (3GGG G2 EGEG |\


